src/logos/XML.svg

<svg enable-background="new 0 0 115.28 122.88" viewBox="0 0 115.28 122.88" xmlns="http://www.w3.org/2000/svg"><path clip-rule="evenodd" d="m25.38 57h64.88v-19.66h-20.67c-2.17 0-5.19-1.17-6.62-2.6s-2.3-4.01-2.3-6.17v-20.93h-52.52c-.18 0-.32.09-.41.18-.15.1-.19.23-.19.42v106.45c0 .14.09.32.18.41.09.14.28.18.41.18h81.51c.18 0 .17-.09.27-.18.14-.09.33-.28.33-.41v-11.16h-64.87c-4.14 0-7.56-3.4-7.56-7.56v-31.42c0-4.15 3.4-7.55 7.56-7.55zm4.6 11.76h7.76l4.03 7 3.92-7h7.66l-7.07 11.02 7.74 11.73h-7.91l-4.47-7.31-4.5 7.31h-7.85l7.85-11.86zm25.74 0h9.28l3.53 13.85 3.54-13.85h9.23v22.76h-5.75v-17.35l-4.44 17.35h-5.21l-4.43-17.35v17.35h-5.75zm29.59 0h7.03v17.16h11v5.59h-18.03zm12.48-11.76h9.93c4.16 0 7.56 3.41 7.56 7.56v31.42c0 4.15-3.41 7.56-7.56 7.56h-9.93v13.55c0 1.61-.65 3.04-1.7 4.1-1.06 1.06-2.49 1.7-4.1 1.7-29.44 0-56.59 0-86.18 0-1.61 0-3.04-.64-4.1-1.7s-1.7-2.49-1.7-4.1v-111.24c0-1.61.65-3.04 1.7-4.1 1.06-1.06 2.53-1.7 4.1-1.7h58.72c.13-.05.27-.05.41-.05.64 0 1.29.28 1.75.69h.09c.09.05.14.09.23.18l29.99 30.36c.51.51.88 1.2.88 1.98 0 .23-.05.41-.09.65zm-30.27-29.03v-19.03l21.43 21.7h-18.76c-.74 0-1.38-.32-1.89-.78-.46-.46-.78-1.15-.78-1.89z" fill-rule="evenodd"/></svg>

<?xml version="1.0" encoding="utf-8"?><svg version="1.1" id="Layer_1" xmlns="http://www.w3.org/2000/svg" xmlns:xlink="http://www.w3.org/1999/xlink" x="0px" y="0px" viewBox="0 0 115.28 122.88" style="enable-background:new 0 0 115.28 122.88" xml:space="preserve"><style type="text/css">.st0{fill-rule:evenodd;clip-rule:evenodd;}</style><g><path class="st0" d="M25.38,57h64.88V37.34H69.59c-2.17,0-5.19-1.17-6.62-2.6c-1.43-1.43-2.3-4.01-2.3-6.17V7.64l0,0H8.15 c-0.18,0-0.32,0.09-0.41,0.18C7.59,7.92,7.55,8.05,7.55,8.24v106.45c0,0.14,0.09,0.32,0.18,0.41c0.09,0.14,0.28,0.18,0.41,0.18 c22.78,0,58.09,0,81.51,0c0.18,0,0.17-0.09,0.27-0.18c0.14-0.09,0.33-0.28,0.33-0.41v-11.16H25.38c-4.14,0-7.56-3.4-7.56-7.56 V64.55C17.82,60.4,21.22,57,25.38,57L25.38,57z M29.98,68.76h7.76l4.03,7l3.92-7h7.66l-7.07,11.02l7.74,11.73h-7.91l-4.47-7.31 l-4.5,7.31h-7.85l7.85-11.86L29.98,68.76L29.98,68.76z M55.72,68.76H65l3.53,13.85l3.54-13.85h9.23v22.76h-5.75V74.17l-4.44,17.35 H65.9l-4.43-17.35v17.35h-5.75V68.76L55.72,68.76z M85.31,68.76h7.03v17.16h11v5.59H85.31V68.76L85.31,68.76z M97.79,57h9.93 c4.16,0,7.56,3.41,7.56,7.56v31.42c0,4.15-3.41,7.56-7.56,7.56h-9.93v13.55c0,1.61-0.65,3.04-1.7,4.1c-1.06,1.06-2.49,1.7-4.1,1.7 c-29.44,0-56.59,0-86.18,0c-1.61,0-3.04-0.64-4.1-1.7c-1.06-1.06-1.7-2.49-1.7-4.1V5.85c0-1.61,0.65-3.04,1.7-4.1 c1.06-1.06,2.53-1.7,4.1-1.7h58.72C64.66,0,64.8,0,64.94,0c0.64,0,1.29,0.28,1.75,0.69h0.09c0.09,0.05,0.14,0.09,0.23,0.18 l29.99,30.36c0.51,0.51,0.88,1.2,0.88,1.98c0,0.23-0.05,0.41-0.09,0.65V57L97.79,57z M67.52,27.97V8.94l21.43,21.7H70.19 c-0.74,0-1.38-0.32-1.89-0.78C67.84,29.4,67.52,28.71,67.52,27.97L67.52,27.97z"/></g></svg>
